X: 7345
T: Cliffs Of Moher, The
R: jig
M: 6/8
K: Adorian
~A3 GED|A2A GED|ECC GCC|EDC EFG|
~A3 GED|A2A GED|ECC GCC|EDC ~D3:|
|:Add d2c|Add cAG|EEC GCC|EDC EFG|
Add Ddd-|d2d cAG|EEC GCC|EDC ~D3:|
eaa a2g|eaa ged|BGG DGG|BGB dBd|
eaa a2g|eaa ged|BGG DGG|BAA ABd:|
|:ege dBA|ege d2c|BGG DGG|BGB dBd|
ege dBA|ege d2c|BGG DGG|1 BAA ABd:|2 BAA A3||

